icon-themes/breeze_svg/cmd/lc_snappoints.svg

<svg viewBox="0 0 24 24" xmlns="http://www.w3.org/2000/svg"><path d="m18.5 3c-.831 0-1.5.669-1.5 1.5v1.5h-1v3h5v-3h-1v-1.5c0-.831-.669-1.5-1.5-1.5zm0 1c.277 0 .5.223.5.5v1.5h-1v-1.5c0-.277.223-.5.5-.5zm-10.5 1v1h7v-1zm-3 3v8h1v-8zm13 2v6h1v-6zm-10 8v1h8v-1z" fill="#4d4d4d"/><path d="m4 4v4h4v-4zm1 1h2v2h-2zm-1 11v4h4v-4zm12 0v4h4v-4zm-11 1h2v2h-2zm12 0h2v2h-2z" fill="#1d99f3"/></svg>

<svg xmlns="http://www.w3.org/2000/svg" viewBox="0 0 24 24">
 <path 
     style="fill:#4d4d4d" 
     d="M 18.5 3 C 17.669 3 17 3.669 17 4.5 L 17 6 L 16 6 L 16 9 L 21 9 L 21 6 L 20 6 L 20 4.5 C 20 3.669 19.331 3 18.5 3 z M 18.5 4 C 18.777 4 19 4.223 19 4.5 L 19 6 L 18 6 L 18 4.5 C 18 4.223 18.223 4 18.5 4 z M 8 5 L 8 6 L 15 6 L 15 5 L 8 5 z M 5 8 L 5 16 L 6 16 L 6 8 L 5 8 z M 18 10 L 18 16 L 19 16 L 19 10 L 18 10 z M 8 18 L 8 19 L 16 19 L 16 18 L 8 18 z "
     />
 <path 
     style="fill:#1d99f3" 
     d="M 4 4 L 4 8 L 8 8 L 8 4 L 4 4 z M 5 5 L 7 5 L 7 7 L 5 7 L 5 5 z M 4 16 L 4 20 L 8 20 L 8 16 L 4 16 z M 16 16 L 16 20 L 20 20 L 20 16 L 16 16 z M 5 17 L 7 17 L 7 19 L 5 19 L 5 17 z M 17 17 L 19 17 L 19 19 L 17 19 L 17 17 z "
     />
 </svg>
